X: 23
T: (Have a) Holly Jolly Christmas   [G]
C: Johnny Marks, 1962
%D:1964
D: The Quinto Sisters album "Holly Jolly Christmas" 1964
D: Burl Ives single 1964
S: http://gulfweb.net:34043/~rlwalker/abc/christmas/haveaholly.abc 2009-11-30
M: 4/4
L: 1/4
%Q: 1/4=80
K: G
%%continueall yes
[b/B/][a/d/] |\
"G"gg ff | e B2 B/d/ | ee dd | "D"[A4F4] |\
ff f>e | "D7"dd d>B | "D7"dd [ec][cd] | "G"B2 |[| z"D7"[b/B/][a/d/] |
"G"gg ff | e B2 B/d/ | ee dd | "D7"[A4F4] |\
"D7"ff f>e | dd d>B | "D7"dd cA | "G"G4 |]
|:\
"Em"g2 e>g | "Bm"fd d2 | "C"ec ce | "G"d4 |\
"Am"c2 A>c | "Em"Be e2 | "A"AA "A7"B^c | "D"d3 "D7"b/a/ ||\
"G"gg ff | e B2 B/d/ |
ee dd | "D7"[A4F4] "^I"|\
"D7"ff f/e/d/c/ | "G"B d "Em"eg |[" " "A7"ae- e"D7"f | "G"g3 :|\
["fine" "A7"a2 e2- | e2 "D7"f2 | "G"g4- | g3 |]

